wp-content/themes/KOOEN/assets/img/common/company.svg

<svg fill="none" height="20" viewBox="0 0 92 20" width="92" xmlns="http://www.w3.org/2000/svg"><path d="m10.725 17.1c-.45.7-1.025 1.2667-1.725 1.7-.7.4167-1.55.625-2.55.625-.98333 0-1.86667-.2333-2.65-.7s-1.44167-1.1167-1.975-1.95-.941667-1.8083-1.225-2.925c-.283333-1.1333-.425-2.3667-.425-3.7 0-1.33333.141667-2.56667.425-3.7.3-1.13333.71667-2.10833 1.25-2.925.55-.83333 1.20833-1.48333 1.975-1.95.78333-.46667 1.65833-.700001 2.625-.700001.9 0 1.725.175001 2.475.525001s1.3667.88333 1.85 1.6l-1.4 1.525c-.36667-.53333-.79167-.925-1.275-1.175-.48333-.26667-1-.4-1.55-.4-.68333 0-1.275.19167-1.775.575s-.91667.9-1.25 1.55c-.31667.65-.55833 1.41667-.725 2.3-.16667.86667-.25 1.79167-.25 2.775 0 .9833.08333 1.9083.25 2.775s.41667 1.6333.75 2.3c.33333.65.75 1.1667 1.25 1.55.51667.3833 1.11667.575 1.8.575.61667 0 1.15833-.1667 1.625-.5.48333-.3333.86667-.7417 1.15-1.225zm13.4402-6.975c0 1.3833-.1416 2.65-.425 3.8-.2666 1.1333-.6666 2.1083-1.2 2.925-.5166.8167-1.15 1.45-1.9 1.9-.7333.45-1.575.675-2.525.675s-1.8-.225-2.55-.675-1.3916-1.0833-1.925-1.9c-.5166-.8167-.9166-1.7917-1.2-2.925-.2666-1.15-.4-2.4167-.4-3.8 0-1.38333.1334-2.64167.4-3.775.2667-1.15.6584-2.125 1.175-2.925.5167-.81667 1.15-1.44167 1.9-1.875.7667-.45 1.6334-.675001 2.6-.675001.95 0 1.7917.225001 2.525.675001.75.43333 1.3834 1.05833 1.9 1.875.5334.8.9334 1.775 1.2 2.925.2834 1.13333.425 2.39167.425 3.775zm-2.375 0c0-1-.0833-1.94167-.25-2.825-.15-.88333-.3833-1.65-.7-2.3-.3-.65-.6833-1.15833-1.15-1.525-.45-.38333-.975-.575-1.575-.575-.6166 0-1.1583.19167-1.625.575-.4666.36667-.8583.875-1.175 1.525-.3.65-.525 1.41667-.675 2.3s-.225 1.825-.225 2.825.075 1.9417.225 2.825.375 1.65.675 2.3c.3167.65.7084 1.1667 1.175 1.55.4667.3667 1.0084.55 1.625.55.6 0 1.125-.1833 1.575-.55.4667-.3833.85-.9 1.15-1.55.3167-.65.55-1.4167.7-2.3.1667-.8833.25-1.825.25-2.825zm17.6026 8.875v-14.65h-.075l-3.95 14.65h-2.025l-3.9-14.65h-.075v14.65h-2.075v-17.7h3.3l3.775 14.05h.1l3.7-14.05h3.45v17.7zm15.2879-12.725c0 .85-.125 1.6-.375 2.25s-.5917 1.19167-1.025 1.625c-.4167.4167-.9.7333-1.45.95-.5334.2167-1.1.325-1.7.325h-2.4v7.575h-2.225v-17.7h4.475c.5333 0 1.075.08333 1.625.25.5666.15 1.075.41667 1.525.8s.8166.9 1.1 1.55c.3.63333.45 1.425.45 2.375zm-2.225.025c0-1.06667-.25-1.84167-.75-2.325-.5-.5-1.15-.75-1.95-.75h-2.025v6.325h2.025c.8 0 1.45-.26667 1.95-.8.5-.55.75-1.36667.75-2.45zm11.5404 12.7-1-4.15h-5.125l-1.025 4.15h-2.275l4.45-17.7h2.975l4.35 17.7zm-3.475-15.6h-.1l-2.25 9.675h4.525zm15.7826 15.6-5.65-13.725h-.075v13.725h-2.075v-17.7h2.7l5.575 13.75h.075v-13.75h2.075v17.7zm11.1311-7.075v7.075h-2.225v-7.075l-4.4-10.625h2.45l3.075 8.325 3.15-8.325h2.4z" fill="#fff"/></svg>

<svg width="92" height="20" viewBox="0 0 92 20" fill="none" xmlns="http://www.w3.org/2000/svg">
<path d="M10.725 17.1C10.275 17.8 9.7 18.3667 9 18.8C8.3 19.2167 7.45 19.425 6.45 19.425C5.46667 19.425 4.58333 19.1917 3.8 18.725C3.01667 18.2583 2.35833 17.6083 1.825 16.775C1.29167 15.9417 0.883333 14.9667 0.6 13.85C0.316667 12.7167 0.175 11.4833 0.175 10.15C0.175 8.81667 0.316667 7.58333 0.6 6.45C0.9 5.31667 1.31667 4.34167 1.85 3.525C2.4 2.69167 3.05833 2.04167 3.825 1.575C4.60833 1.10833 5.48333 0.874999 6.45 0.874999C7.35 0.874999 8.175 1.05 8.925 1.4C9.675 1.75 10.2917 2.28333 10.775 3L9.375 4.525C9.00833 3.99167 8.58333 3.6 8.1 3.35C7.61667 3.08333 7.1 2.95 6.55 2.95C5.86667 2.95 5.275 3.14167 4.775 3.525C4.275 3.90833 3.85833 4.425 3.525 5.075C3.20833 5.725 2.96667 6.49167 2.8 7.375C2.63333 8.24167 2.55 9.16667 2.55 10.15C2.55 11.1333 2.63333 12.0583 2.8 12.925C2.96667 13.7917 3.21667 14.5583 3.55 15.225C3.88333 15.875 4.3 16.3917 4.8 16.775C5.31667 17.1583 5.91667 17.35 6.6 17.35C7.21667 17.35 7.75833 17.1833 8.225 16.85C8.70833 16.5167 9.09167 16.1083 9.375 15.625L10.725 17.1ZM24.1652 10.125C24.1652 11.5083 24.0236 12.775 23.7402 13.925C23.4736 15.0583 23.0736 16.0333 22.5402 16.85C22.0236 17.6667 21.3902 18.3 20.6402 18.75C19.9069 19.2 19.0652 19.425 18.1152 19.425C17.1652 19.425 16.3152 19.2 15.5652 18.75C14.8152 18.3 14.1736 17.6667 13.6402 16.85C13.1236 16.0333 12.7236 15.0583 12.4402 13.925C12.1736 12.775 12.0402 11.5083 12.0402 10.125C12.0402 8.74167 12.1736 7.48333 12.4402 6.35C12.7069 5.2 13.0986 4.225 13.6152 3.425C14.1319 2.60833 14.7652 1.98333 15.5152 1.55C16.2819 1.1 17.1486 0.874999 18.1152 0.874999C19.0652 0.874999 19.9069 1.1 20.6402 1.55C21.3902 1.98333 22.0236 2.60833 22.5402 3.425C23.0736 4.225 23.4736 5.2 23.7402 6.35C24.0236 7.48333 24.1652 8.74167 24.1652 10.125ZM21.7902 10.125C21.7902 9.125 21.7069 8.18333 21.5402 7.3C21.3902 6.41667 21.1569 5.65 20.8402 5C20.5402 4.35 20.1569 3.84167 19.6902 3.475C19.2402 3.09167 18.7152 2.9 18.1152 2.9C17.4986 2.9 16.9569 3.09167 16.4902 3.475C16.0236 3.84167 15.6319 4.35 15.3152 5C15.0152 5.65 14.7902 6.41667 14.6402 7.3C14.4902 8.18333 14.4152 9.125 14.4152 10.125C14.4152 11.125 14.4902 12.0667 14.6402 12.95C14.7902 13.8333 15.0152 14.6 15.3152 15.25C15.6319 15.9 16.0236 16.4167 16.4902 16.8C16.9569 17.1667 17.4986 17.35 18.1152 17.35C18.7152 17.35 19.2402 17.1667 19.6902 16.8C20.1569 16.4167 20.5402 15.9 20.8402 15.25C21.1569 14.6 21.3902 13.8333 21.5402 12.95C21.7069 12.0667 21.7902 11.125 21.7902 10.125ZM39.3928 19V4.35H39.3178L35.3678 19H33.3428L29.4428 4.35H29.3678V19H27.2928V1.3H30.5928L34.3678 15.35H34.4678L38.1678 1.3H41.6178V19H39.3928ZM54.6807 6.275C54.6807 7.125 54.5557 7.875 54.3057 8.525C54.0557 9.175 53.714 9.71667 53.2807 10.15C52.864 10.5667 52.3807 10.8833 51.8307 11.1C51.2973 11.3167 50.7307 11.425 50.1307 11.425H47.7307V19H45.5057V1.3H49.9807C50.514 1.3 51.0557 1.38333 51.6057 1.55C52.1723 1.7 52.6807 1.96667 53.1307 2.35C53.5807 2.73333 53.9473 3.25 54.2307 3.9C54.5307 4.53333 54.6807 5.325 54.6807 6.275ZM52.4557 6.3C52.4557 5.23333 52.2057 4.45833 51.7057 3.975C51.2057 3.475 50.5557 3.225 49.7557 3.225H47.7307V9.55H49.7557C50.5557 9.55 51.2057 9.28333 51.7057 8.75C52.2057 8.2 52.4557 7.38333 52.4557 6.3ZM63.9961 19L62.9961 14.85H57.8711L56.8461 19H54.5711L59.0211 1.3H61.9961L66.3461 19H63.9961ZM60.5211 3.4H60.4211L58.1711 13.075H62.6961L60.5211 3.4ZM76.3037 19L70.6537 5.275H70.5787V19H68.5037V1.3H71.2037L76.7787 15.05H76.8537V1.3H78.9287V19H76.3037ZM87.4348 11.925V19H85.2098V11.925L80.8098 1.3H83.2598L86.3348 9.625L89.4848 1.3H91.8848L87.4348 11.925Z" fill="white"/>
</svg>
